src/assets/svg/vgen.svg

<svg xmlns="http://www.w3.org/2000/svg" fill="none" aria-labelledby="vgen" viewBox="0 0 48 48">
  <path fill="#B8FF26" d="M22.5282 11.3021c5.1325-4.62132 13.0396-4.20693 17.661.9256l.3716.4127c2.1139 2.2905 3.9991 5.5966 3.9183 8.8571v-.0003c-.0264 1.1544-.3527 2.3343-.9969 3.3788l-.1234.1968c-.0679.1072-.1623.2545-.2811.4364-.2372.3629-.5741.8667-.9944 1.4651-.8324 1.1851-2.0315 2.797-3.466 4.4388-1.4066 1.6099-3.2012 3.4358-5.2456 4.909-1.9229 1.3856-4.8447 3.0289-8.3614 3.0289-3.4454 0-6.4014-1.5877-8.3585-2.9007-2.1108-1.4161-4.033-3.1835-5.5768-4.7644-1.5714-1.609-2.91256-3.1927-3.85292-4.3605-.47419-.5889-.8562-1.0841-1.12517-1.4398-.13468-.1781-.24161-.3219-.31819-.4259l-.1362-.1865c-2.16073-3.0028-1.48106-7.1922 1.52481-9.3552 3.00347-2.1612 7.19047-1.4786 9.35287 1.5237l.0008.0011.049.0668c.0453.0615.1186.1602.2174.2909.198.2618.4961.6487.8743 1.1184.2267.2815.4788.5886.7522.9128.193-3.158 1.5773-6.2452 4.1143-8.5296Z"/>
  <path fill="url(#a)" fill-rule="evenodd" d="M24.4754 13.572c3.3677-3.0323 8.5559-2.7604 11.5882.6073l.3884.4313.0047.0052c1.7615 1.9023 2.8441 4.187 2.7931 5.8704l-.0001.0037c-.0094.4113-.1252.8264-.3573 1.2031l-.0282.0453c-.016.0255-.0384.0613-.0672.1066-.058.0915-.1416.2221-.2489.3863-.2145.3282-.5243.7918-.9135 1.3458-.7754 1.1039-1.88 2.5872-3.1854 4.0812-1.2953 1.4824-2.8461 3.0424-4.5214 4.2496-1.6318 1.1759-3.6563 2.2175-5.8475 2.2175-2.166 0-4.2495-1.0221-5.9628-2.1715-1.7689-1.1868-3.4586-2.7258-4.8962-4.1979-1.4475-1.4822-2.6962-2.9554-3.58009-4.0531-.44339-.5506-.79848-1.0111-1.0447-1.3367-.12318-.1628-.21932-.2922-.28586-.3825-.03327-.0452-.05916-.0806-.07734-.1056l-.03049-.0421c-.21312-.3358-.3502-.5748-.4232-1.0358-.10802-.6823.06053-1.5536.82053-2.21.64538-.55 1.48985-.65 2.04985-.51.72.16 1.1391.53 1.4506.9484l.0007.0009.0011.0017.0146.0201c.0129.0177.0334.0457.061.0832.0554.0751.1394.1883.2498.3342.2208.2919.5458.7136.9548 1.2215.8209 1.0194 1.9662 2.3691 3.2754 3.7097 1.3191 1.3507 2.7488 2.6345 4.1357 3.5649 1.442.9675 2.5506 1.357 3.2866 1.357.544 0 1.2618-.2165 2.1351-.7217l.6085-.352-.5323-.4593c-.1681-.1451-.3291-.3024-.4818-.472l-1.9417-2.1565c-3.0323-3.3677-2.7604-8.5559.6073-11.5882Zm9.1065 7.4168c-.7018.9899-1.6538 2.2542-2.7501 3.5089l-.0252.0288-.3496.3992-3.0093-2.9687-.0098-.011c-1.2572-1.3962-1.1445-3.5471.2517-4.8042 1.3962-1.2572 3.5472-1.1444 4.8043.2517l.3883.4313c.3763.418.6984.8817.8583 1.3992.1648.5334.1487 1.0975-.1096 1.6787l-.0202.0455-.0288.0406Z" clip-rule="evenodd"/>
  <defs>
    <linearGradient id="a" x1="39.2515" x2="17.7667" y1="11.4644" y2="41.3309" gradientUnits="userSpaceOnUse">
      <stop stop-color="#10121A"/>
      <stop offset="1" stop-color="#0C090D"/>
    </linearGradient>
  </defs>
</svg>

<svg role="img" width="48" height="48" viewBox="0 0 48 48" fill="none" xmlns="http://www.w3.org/2000/svg" aria-labelledby="vgen"><title id="vgen">vgen.co</title>
<path d="M22.5282 11.3021C27.6607 6.68078 35.5678 7.09517 40.1892 12.2277L40.5608 12.6404C42.6747 14.9309 44.5599 18.237 44.4791 21.4975L44.4791 21.4972C44.4527 22.6516 44.1264 23.8315 43.4822 24.876L43.3588 25.0728C43.2909 25.18 43.1965 25.3273 43.0777 25.5092C42.8405 25.8721 42.5036 26.3759 42.0833 26.9743C41.2509 28.1594 40.0518 29.7713 38.6173 31.4131C37.2107 33.023 35.4161 34.8489 33.3717 36.3221C31.4488 37.7077 28.527 39.351 25.0103 39.351C21.5649 39.351 18.6089 37.7633 16.6518 36.4503C14.541 35.0342 12.6188 33.2668 11.075 31.6859C9.5036 30.0769 8.16244 28.4932 7.22208 27.3254C6.74789 26.7365 6.36588 26.2413 6.09691 25.8856C5.96223 25.7075 5.8553 25.5637 5.77872 25.4597L5.64252 25.2732C3.48179 22.2704 4.16146 18.081 7.16733 15.918C10.1708 13.7568 14.3578 14.4394 16.5202 17.4417L16.521 17.4428L16.57 17.5096C16.6153 17.5711 16.6886 17.6698 16.7874 17.8005C16.9854 18.0623 17.2835 18.4492 17.6617 18.9189C17.8884 19.2004 18.1405 19.5075 18.4139 19.8317C18.6069 16.6737 19.9912 13.5865 22.5282 11.3021Z" fill="#B8FF26"/>
<path fill-rule="evenodd" clip-rule="evenodd" d="M24.4754 13.572C27.8431 10.5397 33.0313 10.8116 36.0636 14.1793L36.452 14.6106L36.4567 14.6158C38.2182 16.5181 39.3008 18.8028 39.2498 20.4862L39.2497 20.4899C39.2403 20.9012 39.1245 21.3163 38.8924 21.693L38.8642 21.7383C38.8482 21.7638 38.8258 21.7996 38.797 21.8449C38.739 21.9364 38.6554 22.067 38.5481 22.2312C38.3336 22.5594 38.0238 23.023 37.6346 23.577C36.8592 24.6809 35.7546 26.1642 34.4492 27.6582C33.1539 29.1406 31.6031 30.7006 29.9278 31.9078C28.296 33.0837 26.2715 34.1253 24.0803 34.1253C21.9143 34.1253 19.8308 33.1032 18.1175 31.9538C16.3486 30.767 14.6589 29.228 13.2213 27.7559C11.7738 26.2737 10.5251 24.8005 9.64121 23.7028C9.19782 23.1522 8.84273 22.6917 8.59651 22.3661C8.47333 22.2033 8.37719 22.0739 8.31065 21.9836C8.27738 21.9384 8.25149 21.903 8.23331 21.878L8.20282 21.8359C7.9897 21.5001 7.85262 21.2611 7.77962 20.8001C7.6716 20.1178 7.84015 19.2465 8.60015 18.5901C9.24553 18.0401 10.09 17.9401 10.65 18.0801C11.37 18.2401 11.7891 18.6101 12.1006 19.0285L12.1013 19.0294L12.1024 19.0311L12.117 19.0512C12.1299 19.0689 12.1504 19.0969 12.178 19.1344C12.2334 19.2095 12.3174 19.3227 12.4278 19.4686C12.6486 19.7605 12.9736 20.1822 13.3826 20.6901C14.2035 21.7095 15.3488 23.0592 16.658 24.3998C17.9771 25.7505 19.4068 27.0343 20.7937 27.9647C22.2357 28.9322 23.3443 29.3217 24.0803 29.3217C24.6243 29.3217 25.3421 29.1052 26.2154 28.6L26.8239 28.248L26.2916 27.7887C26.1235 27.6436 25.9625 27.4863 25.8098 27.3167L23.8681 25.1602C20.8358 21.7925 21.1077 16.6043 24.4754 13.572ZM33.5819 20.9888C32.8801 21.9787 31.9281 23.243 30.8318 24.4977L30.8066 24.5265L30.457 24.9257L27.4477 21.957L27.4379 21.946C26.1807 20.5498 26.2934 18.3989 27.6896 17.1418C29.0858 15.8846 31.2368 15.9974 32.4939 17.3935L32.8822 17.8248C33.2585 18.2428 33.5806 18.7065 33.7405 19.224C33.9053 19.7574 33.8892 20.3215 33.6309 20.9027L33.6107 20.9482L33.5819 20.9888Z" fill="url(#paint0_linear_7876_85960)"/>
<defs>
<linearGradient id="paint0_linear_7876_85960" x1="39.2515" y1="11.4644" x2="17.7667" y2="41.3309" gradientUnits="userSpaceOnUse">
<stop stop-color="#10121A"/>
<stop offset="1" stop-color="#0C090D"/>
</linearGradient>
</defs>
</svg>
